X:1867
T:Bourre (La Vicoise)
C:MCTB 1/51
M:3/8
L:1/16
K:C
GAB|c2e2de|c2e2de|f4e2|decGAB|\
c2e2de|c2e2de|f2d2g2|1 c3:|2 c4||
|:G2|ABcdcA|d2c2B2|ABc2G2|\
ABcdcA|d2c2B2|1 cde2:|2 cde|]"fin"c3|]
